resources/icons/transactions/migration.svg

<svg viewBox="0 0 44 44" fill="none" xmlns="http://www.w3.org/2000/svg">
<path d="M20.0055 1.52634C21.2397 0.824552 22.7603 0.824552 23.9945 1.52634L39.0055 10.062C40.2397 10.7638 41 12.0608 41 13.4643V30.5357C41 31.9392 40.2397 33.2362 39.0055 33.938L23.9945 42.4737C22.7603 43.1754 21.2397 43.1754 20.0055 42.4737L4.99448 33.938C3.76029 33.2362 3 31.9392 3 30.5357V13.4643C3 12.0608 3.76029 10.7638 4.99448 10.062L20.0055 1.52634Z" fill="var(--migration-icon-color-fill, #F5F5FF)" stroke="var(--migration-icon-color-border, #5452CE)" stroke-width="2"/>
<path fill-rule="evenodd" clip-rule="evenodd" d="M22.2755 18.4988C22.1771 18.3917 22.0082 18.3914 21.9093 18.4982L12.4894 28.6738C12.2858 28.8937 11.9386 28.6329 12.0932 28.3761L21.8786 12.1264C21.9756 11.9654 22.2093 11.9657 22.3058 12.1271L32.0146 28.3678C32.1684 28.6251 31.8202 28.8849 31.6174 28.6641L22.2755 18.4988ZM17.5524 26.7161C17.35 26.7161 17.2321 26.4875 17.3495 26.3226L18.7674 24.3299C18.8142 24.2642 18.8898 24.2252 18.9704 24.2252H25.132C25.2126 24.2252 25.2883 24.2642 25.335 24.3299L26.753 26.3226C26.8703 26.4875 26.7524 26.7161 26.55 26.7161H17.5524ZM20.166 22.9798C19.9436 22.9798 19.8327 22.7106 19.9904 22.5539L21.8932 20.6644C21.9908 20.5675 22.1485 20.568 22.2455 20.6656L24.1218 22.5552C24.2778 22.7123 24.1665 22.9798 23.945 22.9798H20.166Z" fill="var(--migration-icon-color-border, #5452CE)"/>
</svg>

<svg viewBox="0 0 44 44" fill="none" xmlns="http://www.w3.org/2000/svg"><path d="M20.006 1.526a4.042 4.042 0 013.988 0l15.011 8.536A3.918 3.918 0 0141 13.464v17.072c0 1.403-.76 2.7-1.995 3.402l-15.01 8.536a4.043 4.043 0 01-3.99 0l-15.01-8.536A3.918 3.918 0 013 30.536V13.464c0-1.403.76-2.7 1.994-3.402l15.012-8.536z" fill="var(--migration-icon-color-fill, #F5F5FF)" stroke="var(--migration-icon-color-border, #5452CE)" stroke-width="2"/><path fill-rule="evenodd" clip-rule="evenodd" d="M22.276 18.499a.25.25 0 00-.367 0l-9.42 10.175c-.203.22-.55-.041-.396-.298l9.786-16.25a.25.25 0 01.427.001l9.709 16.24c.153.258-.195.518-.398.297L22.276 18.5zm-4.724 8.217a.25.25 0 01-.203-.393l1.418-1.993a.25.25 0 01.203-.105h6.162a.25.25 0 01.203.105l1.418 1.993a.25.25 0 01-.203.393h-8.998zm2.614-3.736a.25.25 0 01-.176-.426l1.903-1.89a.25.25 0 01.352.002l1.877 1.89a.25.25 0 01-.177.424h-3.779z" fill="var(--migration-icon-color-border, #5452CE)"/></svg>
